i/telegram.svg

<?xml version="1.0" encoding="UTF-8" standalone="no"?>
<svg width="48px" height="48px" viewBox="0 0 48 48" version="1.1" xmlns="http://www.w3.org/2000/svg" xmlns:xlink="http://www.w3.org/1999/xlink">
    <!-- Generator: Sketch 3.7 (28169) - http://www.bohemiancoding.com/sketch -->
    <title>telegram</title>
    <desc>Created with Sketch.</desc>
    <defs>
        <linearGradient x1="66.67%" y1="16.67%" x2="41.67%" y2="75%" id="linearGradient-1">
            <stop stop-color="#37AEE2" offset="0%"></stop>
            <stop stop-color="#1E96C8" offset="100%"></stop>
        </linearGradient>
        <linearGradient x1="61.2346759%" y1="43.69%" x2="74.7064382%" y2="80.24%" id="linearGradient-2">
            <stop stop-color="#EFF7FC" offset="0%"></stop>
            <stop stop-color="#FFFFFF" offset="100%"></stop>
        </linearGradient>
    </defs>
    <g id="Page-1" stroke="none" stroke-width="1" fill="none" fill-rule="evenodd">
        <g id="Telegram" transform="translate(-22.000000, -19.000000)">
            <g id="telegram" transform="translate(22.000000, 19.000000)">
                <circle id="Oval" fill="url(#linearGradient-1)" cx="24" cy="24" r="24"></circle>
                <path d="M19.6,35 C18.82248,35 18.9546,34.70642 18.68644,33.9661 L16.4,26.44118 L34,16" id="Shape" fill="#C8DAEA"></path>
                <path d="M19.6,35 C20.2,35 20.4651,34.7256 20.8,34.4 L24,31.2884 L20.0084,28.8814" id="Shape" fill="#A9C9DD"></path>
                <path d="M20.008,28.882 L29.68,36.0278 C30.7837,36.63678 31.58028,36.32148 31.8552,35.0031 L35.7922,16.4505 C36.19528,14.83446 35.17618,14.1015 34.12032,14.58086 L11.00232,23.49506 C9.4243,24.128 9.4335,25.00838 10.71468,25.40066 L16.64728,27.25232 L30.38188,18.58732 C31.03026,18.19414 31.62534,18.405522 31.13692,18.839" id="Shape" fill="url(#linearGradient-2)"></path>
            </g>
        </g>
    </g>
</svg>

<svg width="48" height="48" xmlns="http://www.w3.org/2000/svg"><defs><linearGradient x1="66.67%" y1="16.67%" x2="41.67%" y2="75%" id="a"><stop stop-color="#37AEE2" offset="0%"/><stop stop-color="#1E96C8" offset="100%"/></linearGradient><linearGradient x1="61.235%" y1="43.69%" x2="74.706%" y2="80.24%" id="b"><stop stop-color="#EFF7FC" offset="0%"/><stop stop-color="#FFF" offset="100%"/></linearGradient></defs><g fill="none" fill-rule="evenodd"><circle fill="url(#a)" cx="24" cy="24" r="24"/><path d="M19.6 35c-.778 0-.645-.294-.914-1.034L16.4 26.441 34 16" fill="#C8DAEA"/><path d="M19.6 35c.6 0 .865-.274 1.2-.6l3.2-3.112-3.992-2.407" fill="#A9C9DD"/><path d="M20.008 28.882l9.672 7.146c1.104.609 1.9.293 2.175-1.025l3.937-18.552c.403-1.617-.616-2.35-1.672-1.87l-23.118 8.914c-1.578.633-1.569 1.513-.287 1.906l5.932 1.851 13.735-8.665c.648-.393 1.243-.181.755.252" fill="url(#b)"/></g></svg>
